storage/app/icons/phosphoricons/duotone/chat-centered-duotone.svg

<svg xmlns="http://www.w3.org/2000/svg" fill="currentColor" viewBox="0 0 256 256"><path d="M224 56v128a8 8 0 0 1-8 8h-65.07l-16 28a8 8 0 0 1-13.9 0l-16-28H40a8 8 0 0 1-8-8V56a8 8 0 0 1 8-8h176a8 8 0 0 1 8 8" opacity=".2"/><path d="M216 40H40a16 16 0 0 0-16 16v128a16 16 0 0 0 16 16h60.43l13.68 23.94a16 16 0 0 0 27.78 0L155.57 200H216a16 16 0 0 0 16-16V56a16 16 0 0 0-16-16m0 144h-65.07a8 8 0 0 0-7 4l-16 28-16-28a8 8 0 0 0-7-4H40V56h176Z"/></svg>

<svg xmlns="http://www.w3.org/2000/svg" viewBox="0 0 256 256" fill="currentColor"><path d="M224,56V184a8,8,0,0,1-8,8H150.93l-16,28a8,8,0,0,1-13.9,0l-16-28H40a8,8,0,0,1-8-8V56a8,8,0,0,1,8-8H216A8,8,0,0,1,224,56Z" opacity="0.2"/><path d="M216,40H40A16,16,0,0,0,24,56V184a16,16,0,0,0,16,16h60.43l13.68,23.94a16,16,0,0,0,27.78,0L155.57,200H216a16,16,0,0,0,16-16V56A16,16,0,0,0,216,40Zm0,144H150.93a8,8,0,0,0-7,4l-16,28-16-28a8,8,0,0,0-7-4H40V56H216Z"/></svg>
